X:1
T:O Dass Ich Tausend, 98.98.88
T:O Dass Ich Tausend, 98.98.88
T:Kornelius Heinrich Dretzel, 1731
T:Public Domain Courtesy of the Cyber Hymnal™
C:Kornelius Heinrich Dretzel, 1731
Z:Public Domain
Z:Courtesy of the Cyber Hymnal™
%%score ( 1 2 ) ( 3 4 )
L:1/8
Q:1/4=115
M:3/4
K:F
V:1 treble 
V:2 treble 
V:3 bass 
V:4 bass 
V:1
 [CF]2 [CA]2 [DF]2 | [EG]4 [Fc]2 | [FB]4 [FA]2 | [EG]2 [CF]2 z2 | [EG]2 [DG]2 [EG]2 | [FA]4 [Cc]2 | %6
 [Dc]4 [D=B]2 | [Ec]6 | [CF]2 [CA]2 [DF]2 | [EG]4 [Fc]2 | [FB]4 [FA]2 | [EG]2 [CF]2 z2 | %12
 [EG]2 [DG]2 [EG]2 | [FA]4 [Cc]2 | [Dc]4 [D=B]2 | [Ec]6 | [CG]2 [=B,G]2 [CG]2 | [CA]4 [DF]2 | %18
 B4 [FA]2 | [EG]6 | [Ec]2 [Ec]2 [Fc]2 | [FB]4 [FA]2 | [FG]4 [EG]2 | [CF]6 |] %24
V:2
 x6 | x6 | x6 | x6 | x6 | x6 | x6 | x6 | x6 | x6 | x6 | x6 | x6 | x6 | x6 | x6 | x6 | x6 | %18
 (D2 E2) x2 | x6 | x6 | x6 | x6 | x6 |] %24
V:3
 [F,A,]2 F,2 [D,A,]2 | [C,C]4 [A,,C]2 | [B,,D]4 [F,C]2 | [C,C]2 [F,,A,]2 z2 | %4
 [E,G,]2 [=B,,G,]2 [C,C]2 | [F,C]4 [E,G,]2 | [F,A,]4 G,2 | [C,G,]6 | [F,A,]2 F,2 [D,A,]2 | %9
 [C,C]4 [A,,C]2 | [B,,D]4 [F,C]2 | [C,C]2 [F,,A,]2 z2 | [C,G,]2 [=B,,G,]2 [C,C]2 | [F,C]4 [E,G,]2 | %14
 [F,A,]4 G,2 | [C,G,]6 | [C,E,]2 [D,F,]2 [E,G,]2 | F,4 [D,A,]2 | [G,,B,]4 [A,,C]2 | [C,C]6 | %20
 [C,G,]2 [C,G,]2 [A,,C]2 | [B,,D]4 [F,,C]2 | [B,,D]4 [C,C]2 | [F,,A,]6 |] %24
V:4
 x2 F,2 x2 | x6 | x6 | x6 | x6 | x6 | x4 G,2 | x6 | x2 F,2 x2 | x6 | x6 | x6 | x6 | x6 | x4 G,2 | %15
 x6 | x6 | F,4 x2 | x6 | x6 | x6 | x6 | x6 | x6 |] %24

